X: 540
T: Diao xianxian
L: 1/8
M: 2/4
K: Eb
f> g f e [I:setbarnb 1]| 
g> f g f/ e/ | 
c> ef2 | 
g g f e/ e/ | 
e e/ c/B2 | 
B c e3/ f/ | 
e c/ G< B c/ | 
e GF2 | 
e Bc2 | 
E F G B | 
G FE2 |]

@@@ Tune index: 9414
